X:124
T: Hudie feilai you feiqu
N: C0170
O: China, Jiangsu, Suzhou
S: III, 497]
N: Zungeneffekte kommen hauptaechlich in den Xiaodiao,vor. Es soll
N: sie auch in Japan geben. Saengerin: Huang Bai Einige Verzierungen. Nachspiel
N: weggelassen. ++++ Vielleicht eine Zeile verloren! ++++
R: Xiaodiao, Shidiao, Xiao jiulianhuan. Biaoda aiqing]
M: 2/4
L: 1/32
K: F
F6D2c3dc2A2 | G16 | A6c2D4F4 | G6A2F2G2F2D2 | C6A,2C8
D4F4F2D2C4 | F4D8C4 | D16
D4D2C2D4F4 | G6A2F2G2F2D2 | C6A,2C8
D4D2F2F2D2C4 | c12z4
c4d4c4c2A2 | G6A2c2A2c4 | A4A2f2d2c2A2G2 | F4F8G4 | F4F8z4
d16- | d16 | c6d2c4A4 | c4d2f2c4A4 | G2F2G2A2c8
A4A2f2d2c2A2G2 | F4F8G4 | F4F8z4

